icon-themes/breeze_svg/cmd/sc_insertcellsright.svg

<svg viewBox="0 0 16 16" xmlns="http://www.w3.org/2000/svg"><path d="m2 2v12h1 6v-1h-2v-3h2v-1h-2v-2h2v-1h-2v-3h2v-1h-6zm1 1h3v3h-3zm0 4h3v2h-3zm0 3h3v3h-3zm7 0v4l4-2z" fill="#4d4d4d"/><path d="m9 2v1 1.28125 1.71875 1 2h1v-.28125l1.71875-1.71875 1-1 .28125-.28125v2.5625l-.71875.71875h1.4375.28125v-.28125-1.4375-2.5625-1.4375-1.28125h-1v2.28125l-1.71875 1.71875-1 1-.28125.28125v-.28125-1-1.28125l1.71875-1.71875 1-1h-1.4375l-1 1-.28125.28125v-.28125-1z" fill="#1d99f3"/></svg>

<svg xmlns="http://www.w3.org/2000/svg" viewBox="0 0 16 16">
 <path 
     style="fill:#4d4d4d" 
     d="M 2 2 L 2 14 L 3 14 L 9 14 L 9 13 L 7 13 L 7 10 L 9 10 L 9 9 L 7 9 L 7 7 L 9 7 L 9 6 L 7 6 L 7 3 L 9 3 L 9 2 L 3 2 L 2 2 z M 3 3 L 6 3 L 6 6 L 3 6 L 3 3 z M 3 7 L 6 7 L 6 9 L 3 9 L 3 7 z M 3 10 L 6 10 L 6 13 L 3 13 L 3 10 z M 10 10 L 10 14 L 14 12 L 10 10 z "
     />
 <path 
     style="fill:#1d99f3" 
     d="M 9 2 L 9 3 L 9 4.28125 L 9 6 L 9 7 L 9 9 L 10 9 L 10 8.71875 L 11.71875 7 L 12.71875 6 L 13 5.71875 L 13 8.28125 L 12.28125 9 L 13.71875 9 L 14 9 L 14 8.71875 L 14 7.28125 L 14 4.71875 L 14 3.28125 L 14 2 L 13 2 L 13 4.28125 L 11.28125 6 L 10.28125 7 L 10 7.28125 L 10 7 L 10 6 L 10 4.71875 L 11.71875 3 L 12.71875 2 L 11.28125 2 L 10.28125 3 L 10 3.28125 L 10 3 L 10 2 L 9 2 z "
     />
 </svg>
